X: 1147
T:The Banshee / Monahan's Reel (A64)
N: page A64
N: hexatonic
N: matches 76
M:C|
L:1/8
A:Ireland
R:reel
B:Fiddler's Fakebook
Z:WM Nov 1996
K:D
"G" G2 GD "C" EDEG|"D"AGAB "G" d2 Bd|"C"eged "G" BAGA|"Em"BAGE "D"EDDE|"G"G2 GD "C" EDEG|
"D" AGAB "G" d2 Bd|"C"eged "G"BAGA|"Em" BAGE "D"ED D2::"Am"eaag "C"eggf|"Em"eBBA B2 Bd|eBBB "G"gBfB|
"Em"eBBA B2 Bd|"Am"eaag "C"eggf|"Em"eBBA B2 Bd|"C"eged "G"BAGA|"Em"BAGE "D"ED D2:|
